packages/icons/src/SVG/user.svg

<svg width="12" height="12" viewBox="0 0 12 12" >
<path fill-rule="evenodd" clip-rule="evenodd" d="M12 11.0003V11.9961H6V12H0V11.0042C0 10.5513 0.136719 10.149 0.410156 9.79759C0.675781 9.44614 1.01562 9.20794 1.42969 9.08298C1.52344 9.04393 1.63281 9.00488 1.75781 8.96583C1.875 8.92678 2.01562 8.88383 2.17969 8.83697C2.21875 8.82916 2.26562 8.81744 2.32031 8.80182C2.375 8.7862 2.44922 8.76277 2.54297 8.73153C2.61328 8.71591 2.67969 8.70029 2.74219 8.68467C2.79687 8.66124 2.85156 8.64172 2.90625 8.6261C3.42969 8.4699 3.82422 8.29027 4.08984 8.08721C4.35547 7.88415 4.51953 7.62252 4.58203 7.30231C4.34766 7.0602 4.13281 6.77123 3.9375 6.43541C3.74219 6.09958 3.57812 5.74032 3.44531 5.35763C3.30469 4.97494 3.19531 4.58445 3.11719 4.18614C3.03906 3.78002 3 3.38562 3 3.00293C3 2.45623 3.07812 1.99154 3.23437 1.60885C3.39062 1.22616 3.60547 0.917671 3.87891 0.683372C4.15234 0.441264 4.46875 0.269445 4.82812 0.167915C5.19531 0.0585759 5.58594 0.00390625 6 0.00390625V0C6.41406 0 6.80469 0.0546697 7.17187 0.164009C7.53125 0.265539 7.84766 0.437358 8.12109 0.679466C8.39453 0.913765 8.60937 1.22226 8.76562 1.60495C8.92187 1.98763 9 2.45233 9 2.99902C9 3.38171 8.96094 3.77611 8.88281 4.18223C8.80469 4.58054 8.69531 4.97104 8.55469 5.35373C8.42187 5.73641 8.25781 6.09567 8.0625 6.4315C7.86719 6.76733 7.65234 7.0563 7.41797 7.2984C7.48047 7.61861 7.64453 7.88025 7.91016 8.08331C8.17578 8.28636 8.57031 8.46599 9.09375 8.62219C9.14844 8.63781 9.20312 8.65734 9.25781 8.68077C9.32031 8.69639 9.38672 8.71201 9.45703 8.72763C9.55078 8.75887 9.625 8.7823 9.67969 8.79792C9.73437 8.81354 9.78125 8.82525 9.82031 8.83306C9.98437 8.87992 10.125 8.92288 10.2422 8.96193C10.3672 9.00097 10.4766 9.04002 10.5703 9.07907C10.9844 9.20403 11.3242 9.44224 11.5898 9.79369C11.8633 10.1451 12 10.5473 12 11.0003ZM6 1.00748V1.01139C5.32812 1.01139 4.82812 1.16759 4.5 1.47999C4.16406 1.78458 3.99609 2.29222 3.99609 3.00293C3.99609 3.33095 4.03125 3.66678 4.10156 4.01041C4.16406 4.35405 4.25391 4.68598 4.37109 5.00618C4.48828 5.32639 4.625 5.62317 4.78125 5.89652C4.9375 6.17768 5.10937 6.41198 5.29687 6.59941L5.64844 6.96258L5.56641 7.46632C5.47266 8.01302 5.23047 8.45037 4.83984 8.77839C4.44922 9.0986 3.90234 9.36804 3.19922 9.58672C3.13672 9.60234 3.07812 9.62187 3.02344 9.6453C2.96094 9.66092 2.89062 9.67654 2.8125 9.69216C2.69531 9.73121 2.61719 9.75854 2.57812 9.77416C2.53125 9.78197 2.48828 9.78978 2.44922 9.79759C2.30078 9.84445 2.17578 9.8835 2.07422 9.91474C1.97266 9.94598 1.88672 9.97722 1.81641 10.0085L1.71094 10.0436C1.5 10.1061 1.32812 10.2271 1.19531 10.4068C1.0625 10.5864 0.996094 10.7856 0.996094 11.0042H6V11.0003H11.0039C11.0039 10.7816 10.9375 10.5825 10.8047 10.4029C10.6719 10.2232 10.5 10.1022 10.2891 10.0397L10.1836 10.0046C10.1133 9.97331 10.0273 9.94207 9.92578 9.91084C9.82422 9.87959 9.69922 9.84055 9.55078 9.79369C9.51172 9.78588 9.46875 9.77807 9.42187 9.77026C9.38281 9.75464 9.30469 9.7273 9.1875 9.68825C9.10937 9.67263 9.03906 9.65701 8.97656 9.64139C8.92187 9.61796 8.86328 9.59844 8.80078 9.58282C8.09766 9.36414 7.55078 9.09469 7.16016 8.77449C6.76953 8.44647 6.52734 8.00911 6.43359 7.46241L6.35156 6.95867L6.70312 6.59551C6.89062 6.40807 7.0625 6.17377 7.21875 5.89261C7.375 5.61926 7.51172 5.32249 7.62891 5.00228C7.74609 4.68207 7.83594 4.35015 7.89844 4.00651C7.96875 3.66287 8.00391 3.32704 8.00391 2.99902C8.00391 2.28832 7.83594 1.78067 7.5 1.47608C7.17187 1.16368 6.67187 1.00748 6 1.00748Z" />
</svg>

<!-- Generated by IcoMoon.io -->
<svg version="1.1" xmlns="http://www.w3.org/2000/svg" width="12" height="12" viewBox="0 0 12 12">
<title>user</title>
<path d="M12 11v0.996l-12 0.004v-0.996c0-0.453 0.137-0.855 0.41-1.207 0.266-0.351 0.605-0.59 1.020-0.715 0.094-0.039 0.203-0.078 0.328-0.117 0.117-0.039 0.258-0.082 0.422-0.129 0.039-0.008 0.086-0.020 0.141-0.035s0.129-0.039 0.223-0.070c0.070-0.016 0.137-0.031 0.199-0.047 0.055-0.023 0.109-0.043 0.164-0.059 0.523-0.156 0.918-0.336 1.184-0.539s0.43-0.465 0.492-0.785c-0.234-0.242-0.449-0.531-0.645-0.867s-0.359-0.695-0.492-1.078c-0.141-0.383-0.25-0.773-0.328-1.171-0.078-0.406-0.117-0.801-0.117-1.183 0-0.547 0.078-1.011 0.234-1.394s0.371-0.691 0.645-0.925c0.273-0.242 0.59-0.414 0.949-0.515 0.367-0.109 0.758-0.164 1.172-0.164v-0.004c0.414 0 0.805 0.055 1.172 0.164 0.359 0.102 0.676 0.273 0.949 0.515 0.273 0.234 0.488 0.543 0.645 0.925s0.234 0.847 0.234 1.394c0 0.383-0.039 0.777-0.117 1.183-0.078 0.398-0.188 0.789-0.328 1.172-0.133 0.383-0.297 0.742-0.492 1.078s-0.41 0.625-0.645 0.867c0.062 0.32 0.227 0.582 0.492 0.785s0.66 0.383 1.184 0.539c0.055 0.016 0.109 0.035 0.164 0.059 0.062 0.016 0.129 0.031 0.199 0.047 0.094 0.031 0.168 0.055 0.223 0.070s0.102 0.027 0.141 0.035c0.164 0.047 0.305 0.090 0.422 0.129 0.125 0.039 0.234 0.078 0.328 0.117 0.414 0.125 0.754 0.363 1.019 0.715 0.274 0.351 0.41 0.754 0.41 1.207zM6 1.007v0.004c-0.672 0-1.172 0.156-1.5 0.469-0.336 0.305-0.504 0.812-0.504 1.523 0 0.328 0.035 0.664 0.105 1.007 0.062 0.344 0.152 0.676 0.27 0.996s0.254 0.617 0.41 0.89c0.156 0.281 0.328 0.515 0.516 0.703l0.352 0.363-0.082 0.504c-0.094 0.547-0.336 0.984-0.727 1.312-0.391 0.32-0.938 0.59-1.641 0.808-0.062 0.016-0.121 0.035-0.176 0.059-0.062 0.016-0.133 0.031-0.211 0.047-0.117 0.039-0.195 0.066-0.234 0.082-0.047 0.008-0.090 0.016-0.129 0.023-0.148 0.047-0.273 0.086-0.375 0.117s-0.188 0.062-0.258 0.094l-0.105 0.035c-0.211 0.062-0.383 0.184-0.516 0.363s-0.199 0.379-0.199 0.597l10.008-0.004c0-0.219-0.066-0.418-0.199-0.597s-0.305-0.301-0.516-0.363l-0.106-0.035c-0.070-0.031-0.156-0.063-0.258-0.094s-0.227-0.070-0.375-0.117c-0.039-0.008-0.082-0.016-0.129-0.023-0.039-0.016-0.117-0.043-0.234-0.082-0.078-0.016-0.148-0.031-0.211-0.047-0.055-0.023-0.113-0.043-0.176-0.059-0.703-0.219-1.25-0.488-1.641-0.808-0.391-0.328-0.633-0.765-0.727-1.312l-0.082-0.504 0.352-0.363c0.188-0.187 0.359-0.422 0.516-0.703 0.156-0.273 0.293-0.57 0.41-0.89s0.207-0.652 0.27-0.996c0.070-0.344 0.105-0.679 0.105-1.007 0-0.711-0.168-1.218-0.504-1.523-0.328-0.312-0.828-0.469-1.5-0.469z"></path>
</svg>
